X:230
T:Barrow Burn
M:C|
L:1/8
Q:1/2=120
C:Addie Harper
S:THSP
R:reel
Z:Ken Fleming
K:D
"D"D2 (3FED FA A2|"G"B2 BA BcdB|"D"A2 AB dcde|"Em"fedB "A"AFEF|
"D"D2 (3FED FA A2|"G"B2 BA Bcde|"D"f2 af "G"egfe
|1 "A"dBAB "D"dBAF:|2 "A"dBAB "D"d2cd||:
"A"e2ef ecBA|"D"f2fg fdBA|"G"g2ga gece|"D"a2ag f2ef|
"G"g2ga gece|"D"a2ag f2ef|"G"g2ag "D"f2ed
|1 "A"BAAB "D"d2cd:|2 "A"BAAB "D"dBAF|]
